svg/Filled/unlock_filled.svg

<svg viewBox="0 0 24 24" xmlns="http://www.w3.org/2000/svg" width="24" height="24"><path fill-rule="evenodd" d="M12 1a5.1 5.1 0 0 1 5.1 5.1v.12a.9.9 0 0 1-1.8 0V6.1a3.3 3.3 0 0 0-6.6 0v2.82H15l2.1.02a4 4 0 0 1 3.6 3.98v4.47a4 4 0 0 1-3.8 3.8H7.1a4 4 0 0 1-3.8-3.8v-4.47a4 4 0 0 1 3.6-3.98V6.1A5.1 5.1 0 0 1 12 1m0 12a1.5 1.5 0 0 0-1.09 2.53q.1.1.1.22v.75a1 1 0 0 0 2 0v-.76q0-.12.1-.22.38-.42.4-1.02c0-.83-.68-1.5-1.5-1.5" clip-rule="evenodd"/></svg>

<svg viewBox="0 0 24 24" xmlns="http://www.w3.org/2000/svg" width="24" height="24"><path fill-rule="evenodd" d="M12 1A5.1 5.1 0 0 1 17.1 6.1L17.1 6.22A.9 .9 0 0 1 15.3 6.22L15.3 6.1A3.3 3.3 0 0 0 8.7 6.1L8.7 8.92L17.1 8.94A4 4 0 0 1 20.7 12.92L20.7 17.39A4 4 0 0 1 16.9 21.19L7.1 21.19A4 4 0 0 1 3.3 17.39L3.3 12.92A4 4 0 0 1 6.9 8.94L6.9 6.1A5.1 5.1 0 0 1 12 1M12 13a1.5 1.5 0 0 0-1.09 2.53q.1.1.1.22v.75a1 1 0 0 0 2 0v-.76q0-.12.1-.22.38-.42.4-1.02c0-.83-.68-1.5-1.5-1.5" clip-rule="evenodd"/></svg>
